src/components/00-materials/images-raw/Medical Assistance.svg

<svg width="96" height="96" viewBox="0 0 96 96" fill="none" xmlns="http://www.w3.org/2000/svg">
<path d="M38.77 70.0001L40.68 68.6501C40.9284 68.4709 41.2098 68.3427 41.5081 68.2728C41.8063 68.2029 42.1154 68.1928 42.4175 68.243C42.7196 68.2932 43.0089 68.4027 43.2685 68.5653C43.5281 68.7278 43.7529 68.9402 43.93 69.1901L51.17 79.3301C51.5298 79.8343 51.675 80.4606 51.5738 81.0717C51.4726 81.6828 51.1332 82.2288 50.63 82.5901L48.72 83.9001M62.54 41.8201H55.2V34.4801C55.2 34.2378 55.1045 34.0053 54.9341 33.833C54.7637 33.6608 54.5323 33.5627 54.29 33.5601H45.12C44.9992 33.5601 44.8796 33.5839 44.7679 33.6301C44.6563 33.6763 44.5549 33.7441 44.4695 33.8295C44.384 33.9149 44.3163 34.0164 44.27 34.128C44.2238 34.2396 44.2 34.3592 44.2 34.4801V41.8201H36.86C36.6187 41.8201 36.3872 41.9159 36.2165 42.0866C36.0459 42.2572 35.95 42.4887 35.95 42.7301V51.9001C35.95 52.1423 36.0455 52.3748 36.2159 52.5471C36.3863 52.7193 36.6177 52.8174 36.86 52.8201H44.2V60.1601C44.2026 60.4023 44.3007 60.6338 44.473 60.8041C44.6452 60.9745 44.8777 61.0701 45.12 61.0701H54.29C54.5314 61.0701 54.7628 60.9742 54.9335 60.8035C55.1041 60.6329 55.2 60.4014 55.2 60.1601V52.8201H62.54C62.784 52.8201 63.018 52.7231 63.1905 52.5506C63.3631 52.3781 63.46 52.1441 63.46 51.9001V42.7301C63.4574 42.4878 63.3593 42.2564 63.187 42.086C63.0148 41.9156 62.7823 41.82 62.54 41.8201V41.8201ZM15.26 37.0001L17.16 35.6401C17.6642 35.2803 18.2905 35.1351 18.9016 35.2363C19.5127 35.3375 20.0587 35.6769 20.42 36.1801L27.65 46.3201C28.0098 46.8243 28.155 47.4506 28.0538 48.0617C27.9526 48.6728 27.6132 49.2188 27.11 49.5801L25.21 50.9401L15.26 37.0001Z" stroke="#00008F" stroke-width="2" stroke-linecap="round" stroke-linejoin="round"/>
<path d="M16.46 30C19.4248 24.4822 23.7729 19.8297 29.0777 16.4988C34.3826 13.168 40.4621 11.2731 46.72 11H47.47C57.0381 10.5736 66.3849 13.9585 73.4613 20.4126C80.5377 26.8666 84.7663 35.8632 85.22 45.43V46.17C85.5917 54.6103 82.9971 62.9145 77.8863 69.6418C72.7755 76.3692 65.471 81.0952 57.24 83M38.79 70C37.8854 70.7233 37.1487 71.6344 36.6307 72.6704C36.1128 73.7063 35.8259 74.8424 35.79 76C30.6852 74.371 26.2438 71.1356 23.1279 66.7763C20.012 62.417 18.3887 57.1673 18.5 51.81C19.6126 52.1581 20.7879 52.2588 21.9435 52.105C23.0991 51.9513 24.2071 51.5468 25.19 50.92L15.27 37C13.6642 38.2791 12.6116 40.1265 12.33 42.16C10.7331 47.0262 10.303 52.1997 11.0744 57.2627C11.8457 62.3258 13.797 67.1364 16.7706 71.3063C19.7442 75.4761 23.6567 78.8881 28.1922 81.2669C32.7277 83.6457 37.7591 84.9245 42.88 85C44.8938 85.3912 46.9809 84.9938 48.71 83.89L38.79 70Z" stroke="#00008F" stroke-width="2" stroke-linecap="round" stroke-linejoin="round"/>
</svg>

<svg width="96" height="96" viewBox="0 0 96 96" fill="none" xmlns="http://www.w3.org/2000/svg"><path d="M38.77 70l1.91-1.35a2.32 2.32 0 013.25.54l7.24 10.14a2.34 2.34 0 01-.54 3.26l-1.91 1.31m13.82-42.08H55.2v-7.34a.92.92 0 00-.91-.92h-9.17a.921.921 0 00-.92.92v7.34h-7.34a.91.91 0 00-.91.91v9.17a.92.92 0 00.91.92h7.34v7.34a.92.92 0 00.92.91h9.17a.91.91 0 00.91-.91v-7.34h7.34a.92.92 0 00.92-.92v-9.17a.92.92 0 00-.92-.91v0zM15.26 37l1.9-1.36a2.34 2.34 0 013.26.54l7.23 10.14a2.34 2.34 0 01-.54 3.26l-1.9 1.36L15.26 37z" stroke="#00008F" stroke-width="2" stroke-linecap="round" stroke-linejoin="round"/><path d="M16.46 30a36.14 36.14 0 0130.26-19h.75a36.18 36.18 0 0137.75 34.43v.74A36.17 36.17 0 0157.24 83M38.79 70a8 8 0 00-3 6A24.85 24.85 0 0118.5 51.81a7.998 7.998 0 006.69-.89L15.27 37a8 8 0 00-2.94 5.16A32.66 32.66 0 0042.88 85a8 8 0 005.83-1.11L38.79 70z" stroke="#00008F" stroke-width="2" stroke-linecap="round" stroke-linejoin="round"/></svg>
